X: 1
T: Monadnock Reel
C: Ralph Page
R: reel
Z: 2012 John Chambers <jc:trillian.mit.edu>
B: Northern Junket, v.1, #4, July 1949
N: This is a variant of Glise \`a Sherbrooke.
M: C|
L: 1/8
K: G
|:\
G2GA BABc | d2dc B2G2 | c2cB AFA2 | dedc B2D2 |
G2GA BABc | d2dc B2G2 | c2cB AGFA | G2G2 G2z2 :|
|:\
g2gf efge | d2dc BAB2 | c2cB AFA2 | d2dc B2d2 |
g2gf efge | d2dc B2G2 | c2cB AGFA | G2G2 G2z2 :|
